src/assets/icons/letters,fancy,serif-f.svg

<svg width="48" height="48" viewBox="0 0 48 48" fill="none" xmlns="http://www.w3.org/2000/svg">
<path d="M21.8064 30.882C21.8064 31.8447 21.8697 32.63 21.9964 33.238C22.1231 33.8207 22.3764 34.2767 22.7564 34.606C23.1617 34.91 23.7191 35.1253 24.4284 35.252C25.1631 35.3787 26.1384 35.4547 27.3544 35.48V37H12.2304V35.48C13.0664 35.4547 13.7504 35.3787 14.2824 35.252C14.8144 35.1253 15.2197 34.91 15.4984 34.606C15.7771 34.302 15.9671 33.8713 16.0684 33.314C16.1697 32.7567 16.2204 32.0347 16.2204 31.148V13.592C16.2204 12.7053 16.1697 11.996 16.0684 11.464C15.9924 10.9067 15.8277 10.476 15.5744 10.172C15.3211 9.84267 14.9537 9.62733 14.4724 9.526C14.0164 9.39933 13.4084 9.31067 12.6484 9.26V7.74H35.9044L36.3604 15.758H34.7644C34.6124 14.6687 34.3844 13.7567 34.0804 13.022C33.8017 12.262 33.3964 11.654 32.8644 11.198C32.3324 10.7167 31.6484 10.3747 30.8124 10.172C29.9764 9.96933 28.9504 9.868 27.7344 9.868H22.4904C22.0344 9.868 21.8064 10.0833 21.8064 10.514V21.496C23.3517 21.496 24.6057 21.4327 25.5684 21.306C26.5564 21.1793 27.3417 20.9387 27.9244 20.584C28.5071 20.204 28.9251 19.6973 29.1784 19.064C29.4317 18.4307 29.6091 17.5947 29.7104 16.556H31.1164V28.45H29.7104C29.5584 27.386 29.3431 26.5373 29.0644 25.904C28.7857 25.2453 28.3551 24.7513 27.7724 24.422C27.2151 24.0673 26.4551 23.8267 25.4924 23.7C24.5297 23.5733 23.3011 23.51 21.8064 23.51V30.882Z" fill="black"/>
</svg>

<svg xmlns="http://www.w3.org/2000/svg" width="48" height="48" fill="none" viewBox="0 0 48 48">
  <path fill="#000" d="M21.806 30.882c0 .963.064 1.748.19 2.356.127.583.38 1.039.76 1.368.406.304.963.52 1.672.646.735.127 1.71.203 2.926.228V37H12.23v-1.52c.836-.025 1.52-.101 2.052-.228s.938-.342 1.216-.646c.28-.304.47-.735.57-1.292.102-.557.152-1.28.152-2.166V13.592c0-.887-.05-1.596-.152-2.128-.076-.557-.24-.988-.494-1.292-.253-.33-.62-.545-1.102-.646-.456-.127-1.064-.215-1.824-.266V7.74h23.256l.456 8.018h-1.596c-.152-1.09-.38-2.001-.684-2.736-.278-.76-.684-1.368-1.216-1.824-.532-.481-1.216-.823-2.052-1.026-.836-.203-1.862-.304-3.078-.304H22.49c-.456 0-.684.215-.684.646v10.982c1.546 0 2.8-.063 3.762-.19.988-.127 1.774-.367 2.356-.722.583-.38 1.001-.887 1.254-1.52.254-.633.431-1.47.532-2.508h1.406V28.45H29.71c-.152-1.064-.367-1.913-.646-2.546-.278-.659-.709-1.153-1.292-1.482-.557-.355-1.317-.595-2.28-.722-.962-.127-2.19-.19-3.686-.19v7.372z"/>
</svg>
